!!! OTL: Berkowitz127
!!! Chapter: 1
!!! Section: I
!!! Page: 30
!!! Mode: 
!!! Encoder: DJB
**kern
*staff1
*I"Piano
=1-
*clefG2
*k[f#]
*e:
*met(c|)
*M2/2
4b\
4cc\
8r
8b\L
8a\
8cc\J
=2
4b\
4e/
4r
8g/L
8b/J
=3
4ee\
4dd\
8r
8cc\L
8b\
8a\J
=4
2b\
4r
4b\
=5
4cc\
4a/
8r
8a\L
8b\
8cc\J
=6
4b\
4e/
4r
8e/L
8f#/J
=7
4g/
8f#/L
8g/J
4a/
8g/L
8a/J
=8
2b\
4r
4e/
=9
!!linebreak:original
4ee\
4dd\
8r
8cc\L
8b\
8a\J
=10
4cc\
4b\
4r
8e/L
8f#/J
=11
4g/
8r
8g/
4f#/
4b\
=12
2.e/
4r
==
*-
